!!! OTL: Berkowitz240
!!! Chapter: 1
!!! Section: II
!!! Page: 55
!!! Mode: 
!!! Encoder: DJB
**kern
*staff1
*I"Piano
=1-
*clefF4
*k[b-e-]
*g:
*M3/4
4r
4r
4d\
=2
2c#\
4d\
=3
2B-\
4G\
=4
8F#\L
8G\J
4A\
4r
=5
4r
4r
4e-\
=6
2d\
4e-\
=7
2c\
4A\
=8
8G\L
8F#\J
8G\L
8A\J
8B-\L
8c\J
=9
4d\
4r
4d\
=10
2c#\
4d\
=11
2B-\
4G\
=12
!!linebreak:original
[2.e-\
=13
8e-\L]
8d\J
8c\L
8B-\J
8A\L
8G\J
=14
4F\
4r
4En\
=15
4F\
4d\
4c\
=16
2.B-\
=17
4r
4r
4F\
=18
2En\
4F\
=19
4D\
4BB-/
4G\
=20
2F#\
4G\
=21
4E-\
4C/
8G\L
8A\J
=22
4B-\
4A\
4G\
=23
!!linebreak:original
4B-\
4c\
4c#\
=24
4d\
4r
4E-\
=25
4D\
4r
4d\
=26
2c#\
4d\
=27
2B-\
4G\
=28
8c\L
8d\J
4e-\
4r
=29
4r
4r
4E-\
=30
2D\
4B-\
=31
4.A\
8G\
4F#\
=32
[2.G\
=33
4G\]
2r
==
*-
